optimized/24/outline/gift.svg

<svg xmlns="http://www.w3.org/2000/svg" fill="none" viewBox="0 0 24 24">
  <path stroke-linecap="round" stroke-linejoin="round" d="M21 11.25V19.5C21 20.3284 20.3284 21 19.5 21H5.25C4.42157 21 3.75 20.3284 3.75 19.5V11.25M12 4.875C12 3.42525 10.8247 2.25 9.375 2.25C7.92525 2.25 6.75 3.42525 6.75 4.875C6.75 6.32475 7.92525 7.5 9.375 7.5C10.1095 7.5 12 7.5 12 7.5M12 4.875C12 5.59024 12 7.5 12 7.5M12 4.875C12 3.42525 13.1753 2.25 14.625 2.25C16.0747 2.25 17.25 3.42525 17.25 4.875C17.25 6.32475 16.0747 7.5 14.625 7.5C13.8905 7.5 12 7.5 12 7.5M12 7.5V21M3.375 11.25H21.375C21.9963 11.25 22.5 10.7463 22.5 10.125V8.625C22.5 8.00368 21.9963 7.5 21.375 7.5H3.375C2.75368 7.5 2.25 8.00368 2.25 8.625V10.125C2.25 10.7463 2.75368 11.25 3.375 11.25Z"/>
</svg>

<svg xmlns="http://www.w3.org/2000/svg" fill="none" viewBox="0 0 24 24" stroke-width="1.5" stroke="currentColor" aria-hidden="true">
  <path stroke-linecap="round" stroke-linejoin="round" d="M21 11.25v8.25a1.5 1.5 0 01-1.5 1.5H5.25a1.5 1.5 0 01-1.5-1.5v-8.25M12 4.875A2.625 2.625 0 109.375 7.5H12m0-2.625V7.5m0-2.625A2.625 2.625 0 1114.625 7.5H12m0 0V21m-8.625-9.75h18c.621 0 1.125-.504 1.125-1.125v-1.5c0-.621-.504-1.125-1.125-1.125h-18c-.621 0-1.125.504-1.125 1.125v1.5c0 .621.504 1.125 1.125 1.125z"/>
</svg>
